X: 14363
T: Gallows Hill
R: reel
M: 4/4
K: Bminor
|:"Bm"FBBA B2FB|dBcB BAFA|"A"EAdB cAAc|"F#m"dBcA BAGA|
"Bm"FBBA B2FB|dBcB BAFA|"A"EAdB cAAc|"F#m"dBcA "Bm"B2BB:|
|:"Bm"effe ffBf|fece ^gaec|"A"A2Aa ^geea|"F#m"f2fa edcd|
"Bm"B2Bf fece|fff^g afec|"A"A2af ^geea|1 "F#m"efec "Bm"ABBA:|2 "F#m"efec "Bm"ABB2||

